!!!!SEGMENT: pl-wtm--iii-40-856-2--004_wysocki-kasper-napoleon--quatre-krakowiaks-op-1-krakowiak-no-4.krn
!!!cenid: 18xx:4384
!!!COM: Wysocki, Kasper Napoleon
!!!COM-rismID: pe41024789
!!!CDT: 1810/12/06-1850/09/21
!!!CNT: Polish
!!!GTL: Quatre Krakowiaks op. 1
!!!OTL: Krakowiak. No. 4.
!!!OMV: 004
!!!PDT:
!!!AGN:
!!!SMS-siglum: PL-Wtm
!!!SMS-shelfmark: III.40.856/2
!!!SMS-shelfwork: 001-004 G
!!!SMS-variant:
!!!SMS-altvar:
!!!NIFC-rismSourceID: 1001153067
!!!NIFC-rismChildID: 1001153067
!!!NIFC-islandoraID: pl-wtm:13659
!!!URL-pdf-islandora: https://repozytorium.nifc.pl/islandora/object/pl-wtm:13659/datastream/PDF/view
!!!URL-scan: https://polish.musicsources.pl/pl/lokalizacje/galeria/druki-muzyczne/16673/6 @EN{Scan on Polish Music Sources Website} @PL{Skany w portalu Dziedzictwo Muzyki Polskiej w otwartym dostępie}
!!!ONB-nifc: UWAGA: skan 6-7.
!!!OMD: Moderato
!!!AIN: 1 piano
!!!key:
**kern	**kern	**dynam
*part1	*part1	*part1
*staff2	*staff1	*
*	*I"Piano	*
*	*I'pf	*
*	*Ipiano	*
*	*ICklav	*
*	*IGsolo	*
*clefF4	*clefG2	*
*k[b-e-a-]	*k[b-e-a-]	*
*c:	*c:	*
*M2/4	*M2/4	*
*MM88	*MM88	*
!	!	!LO:DY:a
8r	(8a-T</	p
=1	=1	=1
8GG'/	8.g\L	.
(8G\L	.	.
.	16bn\K	.
8Bn\ 8f	8.dd\	.
8G\J)	.	.
.	16dd\Jk	.
=2	=2	=2
*^	*	*
8r	2C\	8ee-'\)	.
8G/ 8e-	.	4cc^^\	.
4G/ 4e-	.	.	.
.	.	8qcc/	.
.	.	(8gg\	.
*v	*v	*	*
=3	=3	=3
8C\L 8F 8A- 8Bn	8.bn\L)	.
8C\J 8F 8A- 8B	.	.
.	16qqb/LL	.
.	16qqcc/JJ	.
.	(16b\K	.
4C\ 4F 4G 4d	8.an\	.
.	16b\Jk	.
=4	=4	=4
*^	*	*
8r	4.C\	8cc'\L)	.
.	.	8qcc/	.
8G/L 8e-	.	8ee-'\J	.
8G/J 8e-	.	8r	.
8r	8r	(8a-T</	.
*v	*v	*	*
=5	=5	=5
8GG'/	8.g\L	.
(8G\L	.	.
.	16bn\K	.
8Bn\ 8f	8.dd\	.
8G\J)	.	.
.	16dd\Jk	.
=6	=6	=6
*^	*	*
8r	2C\	8ee-'\)	.
8G/ 8e-	.	4cc^^\	.
8G/ 8e-	.	.	.
8r	.	(16aa-\LL	.
.	.	16gg\JJ	.
*v	*v	*	*
=7	=7	=7
8C\L 8F 8A- 8Bn	8bn'\L)	.
.	16qqb/LL	.
.	16qqcc/JJ	.
8C\J 8F 8A- 8B	(8b\	.
4C\ 4F 4G 4d	8.an\	.
.	16b\Jk)	.
!!LO:LB:g=original
=8	=8	=8
*^	*	*
8r	4.C\	(8dd\L	.
8G/L 8e-	.	8cc\J)	.
8G/J 8e-	.	8r	.
8r	8ryy	(8a-T</	.
*v	*v	*	*
=9	=9	=9
*	*ped	*
8GG'/	8.g\L	.
(8G\L	.	.
.	16bn\K	.
8Bn\ 8f	8dd'\)	.
8G\J)	(16ee-\L	.
*	*Xped	*
.	16dd\JJ	.
=10	=10	=10
*^	*	*
*	*	*ped	*
8r	2C\	8ee-'\)	.
8G/L 8e-	.	4cc^^\	.
8G/ 8e-	.	.	.
.	.	8qcc/	.
8G/J 8e-	.	(8gg\	.
*	*	*Xped	*
*v	*v	*	*
=11	=11	=11
*	*ped	*
8C\L 8F 8A- 8Bn	8.bn\L)	.
8C\ 8F 8A- 8B	.	.
.	16qqb/LL	.
.	16qqcc/JJ	.
.	(16b\K	.
*	*Xped	*
8C\ 8F 8G 8d	8.an\	.
8C\J 8F 8G 8d	.	.
.	16b\Jk	.
=12	=12	=12
*^	*	*
8r	4.C\	8cc'\L)	.
.	.	8qcc/	.
8G/L 8e-	.	8ee-'\J	.
8G/J 8e-	.	8r	.
8r	8ryy	(8a-T</	.
*v	*v	*	*
=13	=13	=13
*	*ped	*
8GG'/	8.g\L	.
(8G\L	.	.
.	16bn\K	.
8Bn\ 8f	8dd'\)J	.
8G\J)	(16ee-\LL	.
*	*Xped	*
.	16dd\JJ	.
=14	=14	=14
*^	*	*
*	*	*ped	*
8r	2C\	8ee-'\)	.
8G/L 8e-	.	4cc^^\	.
8G/ 8e-	.	.	.
8G/J 8e-	.	(16aa-\LL	.
*	*	*Xped	*
.	.	16gg\JJ	.
*v	*v	*	*
=15	=15	=15
*	*ped	*
8C\L 8F 8A- 8Bn	8.aa-\L	.
8C\ 8F 8A- 8B	.	.
.	16gg\	.
*	*Xped	*
8C\ 8F 8G 8d	8dd'\)Jk	.
.	8qdd/	.
8C\J 8F 8G 8d	(16ff\LL	.
.	16ee-\JJ	.
!!LO:LB:g=original
=16	=16	=16
*^	*	*
8r	4.C\	8dd\L	.
8G/L 8e-	.	8cc\J)	.
8G/J 8e-	.	8r	.
8r	8ryy	[<8cc^^\	.
*clefG2	*	*	*
=17	=17	=17	=17
*	*	*^	*
!LO:TX:a:t=sempre cres. e agitato molto.	!	!LO:TX:a:t=senza rigóre.	!	!
(8a-^^/L	[2c\	(8ff^^/L	2cc\_	.
8f/	.	8aa-/	.	.
8g/	.	8gg/	.	.
8a-/J	.	8ff/J	.	.
=18	=18	=18	=18	=18
8g/L	2c\]	8ee-/L	2cc\]	.
8e-/	.	8gg/	.	.
8f/	.	8ff/	.	.
8g/J)	.	8ee-/J)	.	.
=19	=19	=19	=19	=19
(8a-^^/L	[2c\	(8ff^^/L	[2cc\	.
8f/	.	8aa-/	.	.
8g/	.	8gg/	.	.
8a-/J	.	8ff/J	.	.
=20	=20	=20	=20	=20
8g/L	2c\]	8ee-/L	2cc\]	.
8e-/	.	8gg/	.	.
8f/	.	8ff/	.	.
8g/J)	.	8ee-/J)	.	.
=21	=21	=21	=21	=21
8a-/	8c\	8dd'/L	8bn\L	.
(8a-/L	4.c\	(8ff/	8b\	>
8g/	.	8ee-/	8cc\	]
8f/J)	.	8dd/J)	8a-\J	.
=22	=22	=22	=22	=22
8e-/	8c\	8cc'/	8g\	.
*clefF4	*	*	*	*
!	!	!	!	!LO:DY:a:rj
8C\L 8G 8e-	8ryy	(8g\L 8gg	8ryy	f >
8C\ 8A- 8d	4ryy	8f\ 8ff	4ryy	]
8C\J 8G 8c	.	8e-\J 8ee-	.	.
*v	*v	*	*	*
=23	=23	=23	=23
!	!LO:TX:a:t=smanioso.	!	!
8C\ 8F 8A- 8Bn	8d/L) 8dd	8ryy	.
4.c\	(8bn/ 8ff	8a-\L	>
.	8cc/ 8ee-	8g\	]
.	8a-/J 8dd	8f\J	.
*	*v	*v	*
!!LO:LB:g=original
=24	=24	=24
8c>\ 8e->	8g/) 8cc	.
8C\L 8G 8e-	(8g/L 8gg	>
8C\ 8A- 8d	8f/ 8ff	]
8C\J 8G 8c	8e-/J) 8ee-	.
=25	=25	=25
8GG\L 8Bn	8d/L 8dd	.
8BBn\ 8G	8f/ 8dd	.
8C\ 8F#X	8e-/ 8ee-	.
8E-\J 8G	8g/J 8cc	.
=26	=26	=26
8GG\L 8Bn	8d/L 8dd	.
8BBn\ 8G	8f/ 8dd	.
8C\ 8F#X	8e-/ 8ee-	.
8E-\J 8G	8g/J 8cc	.
=27	=27	=27
[2GG\ [2D [2Bn	8d/ 8dd	ff
.	4g^^\ 4gg	.
.	[>8g^^\ [>8gg	.
=28	=28	=28
4GG\] 4D] 4B]	8g\] 8gg]	.
.	4g^^\ 4gg	.
4r	.	.
.	16g^^;\ 16gg	.
.	16a-T</	.
=29	=29	=29
!	!	!LO:DY:a
8GG/	(8.g\L	p
8G\L	.	.
.	16bn\K	.
8Bn\ 8f	8.dd\	.
8G\J	.	.
.	16dd\Jk	.
=30	=30	=30
*^	*	*
8r	2C\	8ee-'\)	.
8G/ 8e-	.	4cc^^\	.
4G/ 4e-	.	.	.
.	.	8qcc/	.
.	.	(8gg\	.
*v	*v	*	*
=31	=31	=31
8C\L 8F 8A- 8Bn	8.bn\L)	.
8C\J 8F 8A- 8B	.	.
.	16qqb/LL	.
.	16qqcc/JJ	.
.	(16b\K	.
4C\ 4F 4G 4d	8.an\	.
.	16b\Jk	.
=32	=32	=32
*^	*	*
8r	4.C\	8cc'\L)	.
.	.	8qcc/	.
8G/L 8e-	.	8ee-'\J	.
8G/J 8e-	.	8r	.
8r	8ryy	(8cc\	.
*v	*v	*	*
!!LO:LB:g=original
=33	=33	=33
*	*ped	*
8FF/	8ccc\L)	>
(8F\L	(16bbn\L	.
.	16bb-X\JJ	.
8A-\ 8d 8f	16aan\LL	.
.	16aa-X\	.
8F\J)	16gg\	.
*	*Xped	*
.	16ff#X\JJ)	]
=34	=34	=34
8GG'/	(8.aa-\L	.
(8G\L	.	.
.	16gg\K	.
8c\ 8e- 8g	8cc\	.
8G\J)	8ee-\J	.
=35	=35	=35
8GG'/	8dd'\L)	.
.	16qqdd/LL	.
.	16qqee-/JJ	.
(8G\L	(8dd\	.
8Bn\ 8f	8cc\	.
8G\J)	8dd\J)	.
=36	=36	=36
*^	*	*
8r	4.C\	(8ff\L	.
8G/L 8e-	.	8ee-\J)	.
8G/J 8e-	.	8r	.
8r	8ryy	(8ee-\	.
*v	*v	*	*
=37	=37	=37
*	*ped	*
8FF'/	8eee-'\L)	>
(8F\L	(16ddd\L	.
.	16ddd-X\JJ	.
8A-\ 8d 8f	16ccc\LL	.
.	16bbn\	.
8F\J)	16bb-X\	.
*	*Xped	*
.	16aan\JJ)	]]
=38	=38	=38
8GG/	(8.aa-X\L	.
(8G\L	.	.
.	16gg\K	.
8c\ 8e- 8g	8ee-\	.
8G\J)	8cc\J)	.
=39	=39	=39
*	*^	*
8GG'/	(>8a-/L	8ryy	.
(8G\L	8g/	4.f\	.
8Bn\ 8d	8.ee-/	.	.
8G\J)	.	.	.
.	16dd/Jk)	.	.
=40	=40	=40	=40
*^	*	*	*
*	*	*ped	*	*
8r	4C\	8dd:/	2e-:\	.
!LO:N:n=1:vis=4.	!	!	!	!LO:DY:a
4G/ 4c	.	4cc/	.	p
.	4E-\	.	.	.
8B-/	.	8dd-X/	.	.
*	*	*Xped	*	*
*v	*v	*	*	*
*	*v	*v	*
!!LO:LB:g=original
=41	=41	=41
!	!LO:TX:a:t=mezza voce.	!
(8.AA-\L 8.A-	(8.e-/L 8.a- 8.cc	.
16GG\K 16G	16f/K 16b- 16dd-X	.
8AA-\ 8A-	8e-/ 8a- 8cc	.
8GG\J 8G	8f/J 8b- 8dd-	.
=42	=42	=42
8AA-\) 8A-	8e-/) 8a- 8cc	.
(4FF/ 4F	(4c/ 4f 4a-	.
8EEn/ 8En	8d-X/ 8g 8b-	.
=43	=43	=43
8.FF/L 8.F	8.c/L 8.f 8.a-	.
16EEn/K 16En	16d-X/K 16g 16b-	.
8FF/ 8F	8c/ 8f 8a-	.
8EE/J 8E	8d-/J 8g 8b-	.
=44	=44	=44
8FF/) 8F	8c/) 8f 8a-	.
(4DD-X/ 4D-X	(4A-/ 4d-X 4f	.
8CC/ 8C	8B-/ 8en 8g	.
=45	=45	=45
8.DD-X/L 8.D-X	8.A-/L 8.d-X 8.f	.
16CC/K 16C	16B-/K 16en 16g	.
8DD-/ 8D-	8A-/ 8d- 8f	.
8DDn/J 8Dn	8A-/J 8Bn 8f	.
=46	=46	=46
8EE-/) 8E-	8G/) 8c 8e-	.
*ped	*	*
!	!LO:TX:a:t=Soave.	!
8E-\L 8A- 8c	(8e-/L	<
8E-\ 8A- 8c	8a-/	.
*Xped	*	*
8E-\J 8A- 8c	8cc/J	.
=47	=47	=47
.	8qcc/	.
*ped	*	*
8EE-/	8ee-'\L)	.
.	16qqb-/LL	[
.	16qqcc/JJ	.
8E-\L 8G 8d-X	(8b-\	.
8E-\ 8G 8d-	8a-\	.
*Xped	*	*
8E-\J 8G 8d-	8b-\J	.
=48	=48	=48
*ped	*	*
8AA-/	8ff\L	.
8E-\L 8A- 8c	8ee-\J)	.
8E-\ 8A- 8c	4r	.
*Xped	*	*
8E-\J 8A- 8c	.	.
!!LO:PB:g=original
=49	=49	=49
(<8.AA-/L 8.A-	(8.e-/L 8.a- 8.cc	p
16GG/K 16G	16e-/K 16b- 16dd-X	.
8AA-/ 8A-	8e-/ 8a- 8cc	.
8GG/J 8G	8e-/J 8b- 8dd-	.
=50	=50	=50
8AA-/) 8A-	8e-/) 8a- 8cc	.
(4FF/ 4F	(4c/ 4f 4a-	.
8EEn/ 8En	8d-X/ 8g 8b-	.
=51	=51	=51
8.FF/L 8.F	8.c/L 8.f 8.a-	.
16EEn/K 16En	16d-X/K 16g 16b-	.
8FF/ 8F	8c/ 8f 8a-	.
8EE/J 8E	8d-/J 8g 8b-	.
=52	=52	=52
8FF/) 8F	8c/) 8f 8a-	.
(4DD-X/ 4D-X	(4A-/ 4d-X 4f	.
8CC/ 8C	8B-/ 8en 8g	.
=53	=53	=53
!	!LO:TX:t=P:problem:bemol e-	!
!	!LO:SIC:n=2:v:s:=8.d- [por.t.65]	!
8.DD-X/L 8.D-X	8.A-/L 8.d 8.f	.
16CC/K 16C	16B-/K 16enX 16g	.
8DD-/ 8D-	8A-/ 8d 8f	.
8DDn/J 8Dn	8A-/J 8Bn 8f	.
=54	=54	=54
8EE-/) 8E-	8A-^/) 8c 8e-	.
*ped	*	*
!	!LO:TX:t=poco a poco	!
8E-\L 8A- 8c	(<8e-/L	<
8E-\ 8A- 8c	8a-/	.
*Xped	*	*
8E-\J 8A- 8c	8cc/J	.
=55	=55	=55
.	16qqcc/	[
*ped	*	*
!	!	!LO:HP:a:t=cres.
8EE-/	8aa-\L)	<
*Xped	*	*
8E-\L 8A- 8c	(8a-\	p
8E-\ 8G 8d-X	8.b-\	.
8E-\J 8G 8d-	.	.
.	16cc\Jk	.
!!LO:LB:g=original
=56	=56	=56
*ped	*	*
8AA-\L 8A-	8a-/)	>]
8E-\ 8A- 8c	8e-/L 8a-	<
8E-\ 8A- 8c	8a-/ 8cc	.
8E-\J 8A- 8c	8cc/J 8ee-	[[
=57	=57	=57
.	(16qqcc/ 16qqee-	>
*	*^	*
*Xped	*	*	*
8EE-/ 8E-	8ccc\)	8ryy	]
!	!	!	!LO:DY:rj
8E-\L 8A- 8c	(>[<8e-/ 8a-	8ryy	p
8E-\ 8G 8d-X	8.b-/L	4e-\_	.
8E-\J 8G 8d-	.	.	.
.	16cc/Jk	.	.
=58	=58	=58	=58
*ped	*	*	*
8AA-\ 8A-	8a-/)	8e-\]	.
8E-\L 8A- 8c	8e-/ 8a-	8ryy	.
8E-\ 8A- 8c	16a-\LL 16cc	4ryy	<
.	16cc\ 16ee-	.	.
8E-\J 8A- 8c	16ee-\ 16aa-	.	.
.	16aa-\JJ 16ccc	.	.
*Xped	*	*	*
=59	=59	=59	=59
8D\ 8F 8A- 8Bn 8d	8ff\ 8aa- 8fff	8ryy	[ sf
8r	(>8e-/L	8ryy	.
4EE-/ 4E-	8.b-/	[<4d-X\ [<4g	p
.	16cc/Jk	.	.
=60	=60	=60	=60
*^	*	*	*
8r	4.AA-\	8b-/)	8d-\] 8g]	.
8E-/L 8A-	.	4a-/	4c\	.
8E-/J 8A-	.	.	.	.
(8GG/ 8G	8ryy	(8e-/ 8b- 8dd-X	8ryy	p
*v	*v	*	*	*
*	*v	*v	*
=61	=61	=61
8.AA-/L 8.A-	8.e-/L 8.a- 8.cc	.
16GG/K 16G	16e-/K 16b- 16dd-X	.
8AA-/ 8A-	8e-/ 8a- 8cc	.
8GG/J 8G	8e-/J 8b- 8dd-	.
!!LO:LB:g=original
=62	=62	=62
8AA-/) 8A-	8e-/) 8a- 8cc	.
(4FF/ 4F	(4c/ 4f 4a-	.
8EEn/ 8En	8d-X/ 8g 8b-	.
=63	=63	=63
8.FF/L 8.F	8.c/L 8.f 8.a-	.
16EEn/K 16En	16d-X/K 16g 16b-	.
8FF/ 8F	8c/ 8f 8a-	.
8EE/J 8E	8d-/J 8g 8b-	.
=64	=64	=64
8FF/) 8F	8c/) 8f 8a-	.
(4DD-X/ 4D-X	(4A-/ 4d-X 4f	.
8CC/ 8C	8B-/ 8en 8g	.
=65	=65	=65
8.DD-X/L 8.D-X	8.A-/L 8.d-X 8.f	.
16CC/K 16C	16B-/K 16en 16g	.
8DD-/ 8D-	8A-/ 8d- 8f	.
8DDn/J 8Dn	8A-/J 8Bn 8f	.
=66	=66	=66
8EE-/) 8E-	8A-/) 8c 8e-	.
*ped	*	*
8E-\L 8A- 8c	(<8e-/L	.
8E-\ 8A- 8c	8a-/	.
*Xped	*	*
8E-\J 8A- 8c	8cc/J	.
=67	=67	=67
.	16qqcc/	.
*ped	*	*
8EE-/	8ee-\L)	.
.	16qqb-/LL	.
.	16qqcc/JJ	.
8E-\L 8G 8d	(8b-\	.
*Xped	*	*
8E-\ 8G 8d	8a-\	.
8E-\J 8G 8d	8b-\J	.
=68	=68	=68
*ped	*	*
8AA-/	8ff\L	.
8E-\L 8A- 8c	8ee-\J)	.
*Xped	*	*
8E-\ 8A- 8c	4r	.
8E-\J 8A- 8c	.	.
!!LO:LB:g=original
=69	=69	=69
(8.AA-/L 8.A-	(8.e-/L 8.a- 8.cc	.
16GG/K 16G	16e-/K 16b- 16dd-X	.
8AA-/ 8A-	8e-/ 8a- 8cc	.
8GG/J 8G	8e-/J 8b- 8dd-	.
=70	=70	=70
8AA-/) 8A-	8e-/) 8a- 8cc	.
(4FF/ 4F	(4c/ 4f 4a-	.
8EEn/ 8En	8d-X/ 8g 8b-	.
=71	=71	=71
8.FF/L 8.F	8.c/L 8.f 8.a-	.
16EEn/K 16En	16d-X/K 16g 16b-	.
8FF/ 8F	8c/ 8f 8a-	.
8EE/J 8E	8d-/J 8g 8b-	.
=72	=72	=72
8FF'/) 8F	8c'/) 8f 8a-	.
(4DD-X/ 4D-X	(4A-/ 4d-X 4f	.
8CC/ 8C	8B-/ 8en 8g	.
=73	=73	=73
8.DD-X/L 8.D-X	8.A-/L 8.d-X 8.f	.
16CC/K 16C	16B-/K 16en 16g	.
8DD-/ 8D-	8A-/ 8d- 8f	.
8DDn/J 8Dn	8A-/J 8Bn 8f	.
=74	=74	=74
8EE-/) 8E-	8A-/) 8c 8e-	.
!	!LO:TX:a:t=poco a poco	!
8E-\L 8A- 8c	(<8e-/L	<
8E-\ 8A- 8c	8a-/	.
8E-\J 8A- 8c	8cc/J	[[
!!LO:LB:g=original
=75	=75	=75
!	!	!LO:HP:a:t=cres.
.	8qcc/	<
8EE-/	8aa-\L)	.
!	!	!LO:DY:rj
8E-\L 8A- 8c	(8a-\	p
8E-\ 8G 8d-X	8.b-\	.
8E-\J 8G 8d-	.	.
.	16cc\Jk	.
=76	=76	=76
*	*ped	*
8AA-\ 8A-	8a-/)	.
8E-\L 8A- 8c	8e-/L 8a-	<
8E-\ 8A- 8c	8a-/ 8cc	.
8E-\J 8A- 8c	8cc/J 8ee-	[[
=77	=77	=77
.	16qqcc/ 16qqee-	.
*	*^	*
8EE-/ 8E-	8ccc'\	8ryy	.
*	*Xped	*	*
!	!	!	!LO:DY:rj
8E-\L 8A- 8c	(>[<8e-/L 8a-	8ryy	p
8E-\ 8G 8d-X	8.b-/	4e-\_	.
8E-\J 8G 8d-	.	.	.
.	16cc/Jk	.	.
=78	=78	=78	=78
*	*ped	*	*
8EE-/ 8E-	8a-/)	8e-\]	.
8E-\L 8A- 8c	8e-/ 8a-	8ryy	.
8E-\ 8A- 8c	16a-\LL 16cc	4ryy	<
.	16cc\ 16ee-	.	.
8E-\J 8A- 8c	16ee-\ 16aa-	.	.
*	*Xped	*	*
.	16aa-\JJ 16ccc	.	[[
=79	=79	=79	=79
8D\ 8F 8A- 8Bn 8d	8ff\ 8aa- 8fff	4ryy	sf
8r	8e-/L	.	.
!	!	!	!LO:DY:rj
4EE-/ 4E-	8.b-/	[4d-X\ [4g	p
.	16cc/Jk	.	.
=80	=80	=80	=80
*^	*	*	*
8r	4AA-\	8b-/	8d-\] 8g]	.
8E-/ 8A-	.	4.a-T/	4.c\	.
4r	4ryy	.	.	.
*v	*v	*	*	*
!!LO:LB:g=original
=81	=81	=81	=81
8GG'/	(8.g\L	2r	.
(8G\L	.	.	.
.	16bn\K	.	.
8Bn\ 8f	8.dd\	.	.
8G\J)	.	.	.
.	16dd\Jk	.	.
*	*v	*v	*
=82	=82	=82
*^	*	*
8r	2C\	8ee-'\)	.
8G/ 8e-	.	4cc^^\	.
4G/ 4e-	.	.	.
.	.	8qcc/	.
.	.	(8gg\	.
*v	*v	*	*
=83	=83	=83
8C\L 8F 8A- 8Bn	8.bn\L)	.
8C\J 8F 8A- 8B	.	.
.	16qqb/LL	.
.	16qqcc/JJ	.
.	16b\K	.
4C\ 4F 4G 4d	8.an\	.
.	16b\Jk	.
=84	=84	=84
*^	*	*
8r	4.C\	8cc'\L	.
.	.	8qcc/	.
8G/L 8e-	.	8ee-'\J	.
8G/J 8e-	.	8r	.
8r	8r	(8a-T</	.
*v	*v	*	*
=85	=85	=85
8GG'/	8.g\L	.
(8G\L	.	.
.	16bn\K	.
8Bn\ 8f	8.dd\	.
8G\J)	.	.
.	16dd\Jk	.
=86	=86	=86
*^	*	*
8r	2C\	8ee-'\)	.
8G/ 8e-	.	4cc^^\	.
4G/ 4e-	.	.	.
.	.	(16aa-\LL	.
.	.	16gg\JJ	.
*v	*v	*	*
=87	=87	=87
8C\L 8F 8A- 8Bn	8bn'\L)	.
.	16qqb/LL	.
.	16qqcc/JJ	.
8C\J 8F 8A- 8B	(8b\	.
4C\ 4F 4G 4d	8.an\	.
.	16b\Jk	.
!!LO:PB:g=original
=88	=88	=88
.	16qqbn/	.
*^	*	*
8r	4.C\	8dd\L	.
8G/L 8e-	.	8cc\J)	.
8G/J 8e-	.	8r	.
!	!	!LO:TX:t=P:problem:tr bez znaku	!
8r	8ryy	(8a-T</	.
*v	*v	*	*
=89	=89	=89
*	*ped	*
8GG'/	8.g\L	.
(8G\L	.	.
.	16bn\K	.
*	*Xped	*
8Bn\ 8f	8dd'\)J	.
8G\J)	(16ee-\LL	.
.	16dd\JJ	.
=90	=90	=90
*^	*	*
*	*	*ped	*
8r	2C\	8ee-\)	.
8G/L 8e-	.	4cc^^\	.
8G/ 8e-	.	.	.
.	.	8qcc/	.
8G/J 8e-	.	(8gg\	.
*	*	*Xped	*
*v	*v	*	*
=91	=91	=91
*	*	*ped
8C\L 8F 8A- 8Bn	8.bn\L)	.
8C\ 8F 8A- 8B	.	.
.	16qqb/LL	.
.	16qqcc/JJ	.
.	(16b\K	.
8C\ 8F 8G 8d	8.an\	.
*	*Xped	*
8C\J 8F 8G 8d	.	.
.	16b\Jk	.
=92	=92	=92
*^	*	*
8r	4.C\	8cc'\L)	.
.	.	8qcc/	.
8G/L 8e-	.	8ee-'\J	.
8G/J 8e-	.	8r	.
8r	8ryy	(>8a-T</	.
*v	*v	*	*
=93	=93	=93
*	*ped	*
8GG'/	8.g/L	.
(8G\L	.	.
.	16bn/Jk	.
*	*Xped	*
8Bn\ 8f	8dd'/)J	.
8G\J)	(16ee-\LL	.
.	16dd\JJ	.
!!LO:LB:g=original
=94	=94	=94
*^	*	*
*	*	*ped	*
8r	2C\	8ee-'\)	.
8G/L 8e-	.	4cc^^\	.
*	*	*Xped	*
8G/ 8e-	.	.	.
8G/J 8e-	.	(16aa-\LL	.
.	.	16gg\JJ	.
*v	*v	*	*
=95	=95	=95
*	*ped	*
8C\L 8F 8A- 8Bn	8.aa-\L	.
8C\J 8F 8A- 8B	.	.
.	16gg\L	.
4C\ 4F 4G 4d	8dd'\)JJ	.
*	*Xped	*
.	8qdd/	.
.	(16ff\LL	.
.	16ee-\JJ	.
=96	=96	=96
*^	*	*
8r	2C\	8dd\)	.
8G/ 8e-	.	4cc\	.
4G/ 4e-	.	.	.
.	.	[<8cc^^\	.
*clefG2	*	*	*
=97	=97	=97	=97
*	*	*^	*
!	!	!LO:TX:a:t=senza rigore.	!	!
(8a-^^/L	[2c\	(8gg^^/L	2cc\_	f
!	!	!LO:TX:b:t=molto agitato.	!	!
8f/	.	8aa-/	.	.
8g/	.	8gg/	.	.
8a-/J	.	8ff/J	.	.
=98	=98	=98	=98	=98
8g/L	2c\]	8ee-/L	2cc\]	.
8e-/	.	8gg/	.	.
8f/	.	8ff/	.	.
8g/J)	.	8ee-/J)	.	.
=99	=99	=99	=99	=99
(8a-^^/L	2c\	(8gg^^/L	2cc\	.
8f/	.	8aa-/	.	.
8g/	.	8gg/	.	.
8a-/J	.	8ff/J	.	.
=100	=100	=100	=100	=100
8g/L	2c\	8ee-/L	2cc\	.
8e-/	.	8gg/	.	.
8f/	.	8ff/	.	.
8g/J	.	8ee-/J)	.	.
!!LO:LB:g=original
=101	=101	=101	=101	=101
8a-/)	8c\	(8dd/L	8bn\	.
(8a-/L	4c\	8ff/	8b\L	>
8g/	.	8ee-/	8cc\	.
8f/J	8ryy	8dd/J	8a-\J	]
=102	=102	=102	=102	=102
8e-/)	8c\	8cc/)	8g\	.
*clefF4	*	*	*	*
8C\L 8G 8e-	8ryy	(8g/L 8gg	8ryy	>
8C\ 8A- 8d	4ryy	8f/ 8ff	4ryy	.
8C\J 8G 8c	.	8e-/J 8ee-	.	.
*v	*v	*	*	*
=103	=103	=103	=103
8C\ 8F 8A- 8Bn	8d/) 8dd	8ryy	]
4.c>\	(8bn/L 8ff	8a-\L	>
.	8cc/ 8ee-	8g\	.
.	8a-/J 8dd	8f\J	]
*	*v	*v	*
=104	=104	=104
8c>\ 8e->	8g/) 8cc	.
8C\L 8G 8e-	(8g/L 8gg	>
8C\ 8A- 8d	8f/ 8ff	.
8C\J 8G 8c	8e-/J) 8ee-	]
=105	=105	=105
*^	*^	*
8Bn/L	8GG\L	8dd/L	8d\L	.
8G/	8BBn\	8dd/	8f\	.
8F#X/	8C\	8ee-/	8e-\	.
8G/J	8E-\J	8cc/J	8g\J	.
=106	=106	=106	=106	=106
8Bn/L	8GG\L	8dd/L	8d\L	.
8G/	8BBn\	8dd/	8f\	.
8F#X/	8C\	8ee-/	8e-\	.
8G/J	8E-\J	8cc/J	8g\J	.
*v	*v	*	*	*
*	*v	*v	*
=107	=107	=107
[<2GG\ [>2D [>2Bn	8d/ 8dd	.
.	4g^^\ 4gg	.
.	[>8g^^\ [>8gg	.
!!LO:LB:g=original
=108	=108	=108
2GG\] 2D] 2B]	8g\] 8gg]	.
.	4g^^\ 4gg	.
.	8g^^;\ 8gg	.
=109	=109	=109
!	!	!LO:DY:a
8GG'/	(8.g\L	p
(8G\L	.	.
.	16bn\K	.
8Bn\ 8f	8.dd\	.
8G\J)	.	.
.	16dd\Jk	.
=110	=110	=110
*^	*	*
8r	2C\	8ee-'\)	.
8G/L 8e-	.	4cc^^\	.
8G/ 8e-	.	.	.
.	.	8qcc/	.
8G/J 8e-	.	(8gg\	.
*v	*v	*	*
=111	=111	=111
8C\L 8F 8A- 8Bn	8.bn\L)	.
8C\J 8F 8A- 8B	.	.
.	16qqb/LL	.
.	16qqcc/JJ	.
.	(16b\K	.
8C\L 8F 8G 8d	8.an\	.
8C\J 8F 8G 8d	.	.
.	16b\Jk	.
=112	=112	=112
*^	*	*
8r	2C\	8cc\L)	.
.	.	8qcc/	.
8G/ 8e-	.	8ee-'\J	.
4G/ 4e-	.	8r	.
.	.	(8cc\	.
*v	*v	*	*
=113	=113	=113
*	*ped	*
8FF'/	8ccc\L)	.
(8F\L	(16bbn\L	.
.	16bb-X\JJ	.
8A-\ 8d 8f	16aan\LL	.
.	16aa-X\	.
8F\J)	16gg\	.
*	*Xped	*
.	16ff#X\JJ)	.
!!LO:LB:g=original
=114	=114	=114
8GG'/	(8.aa-\L	.
8G\L	.	.
.	16gg\K	.
8c\ 8e- 8g	8cc\	.
8G\J	8ee-\J	.
=115	=115	=115
8GG'/	8dd'\L)	.
.	16qqdd/LL	.
.	16qqee-/JJ	.
(8G\L	(8dd\	.
8Bn\ 8f	8cc\	.
8G\J)	8dd\J	.
=116	=116	=116
*^	*	*
8r	2C\	8ff\L	.
8G/ 8e-	.	8ee-\J)	.
4G/ 4e-	.	8r	.
.	.	(8ee-\	.
*v	*v	*	*
=117	=117	=117
*	*ped	*
!	!	!LO:DY:rj
8FF'/	8eee-'\L)	f
(8F\L	16ddd\L	.
.	16ddd-X\JJ	.
8A-\ 8d 8f	16ccc\LL	.
.	16bbn\	.
8F\J)	16bb-X\	.
*	*Xped	*
.	16aan\JJ	.
=118	=118	=118
*	*^	*
8GG/	8.aa-X\L	4ryy	.
8G\L	.	.	.
.	16gg\Jk	.	.
8c\J 8e- 8g	16ee-\LL	8ryy	.
.	16cc\	.	.
!	!	!LO:N:vis=8.a-/	!
8r	16.a-\	8a-/	>
.	32g\JJk	.	]
*	*v	*v	*
=119	=119	=119
8GGG\L 8GG	8F</L 8G<	p
16r	16r<	.
16GGG\K 16GG	16F</K 16G<	.
8GGG\ 8GG	8F</ 8An<	.
8GGG\J 8GG	8F</J 8Bn<	.
!!LO:LB:g=original
=120	=120	=120
4AAA-\ 4AA- 4E- 4A-X	(<8d</L	.
.	8c</J)	.
4r	8r	.
.	(8ee-\	p
=121	=121	=121
[2FF#X/ [2C [2E- [2An	8eee-'\L)	.
.	(16ddd\L	.
.	16ddd-X\JJ	.
.	16ccc\LL	.
.	16bbn\	.
.	16bb-X\	.
.	16aan\JJ)	.
=122	=122	=122
*	*ped	*
2FF#/] 2C] 2E-] 2A]	16aan\LL	.
.	32r	.
.	32ff#X\K	.
.	16ee-\	.
.	16cc\JJ	.
.	16an/LL	.
.	16f#X/	.
!	!LO:TUP:b	!
.	24e-/	.
.	24c/	.
*	*Xped	*
.	24An/JJ	.
=123	=123	=123
8GG'/ 8C 8E- 8G	8g\ 8cc 8ee- 8gg	f
16r	16r	.
16GGG\KL 16GG	16F</KL 16G<	p
8GGG\ 8GG	8F</ 8An<	.
8GGG\J 8GG	8F</J 8Bn<	.
=124	=124	=124
*^	*	*
4.E-/	4.CC\ 4.GG	8d/	.
.	.	4c;/	.
8r	8ryy	8r	.
*v	*v	*	*
==	==	==
*-	*-	*-
!!!system-decoration: {(s1,s2)}
!!!RDF**kern: < = below
!!!RDF**kern: > = above
!!!ENC: Berenika Jozajtis
!!!END: 2022-12-18
!!!ENC: Marta Chmielewska
!!!END: 2023-07-17
!!!YEC: Copyright 2022 Narodowy Instytut Fryderyka Chopina (https://polishscores.org)
!!!YEM: License CC-BY-4.0 (https://creativecommons.org/licenses/by/4.0)
